icons/svg/shopping/variety_store.svg

<?xml version="1.0" encoding="UTF-8" standalone="no"?>
<!-- Created with Inkscape (http://www.inkscape.org/) -->

<svg
   xmlns:dc="http://purl.org/dc/elements/1.1/"
   xmlns:cc="http://creativecommons.org/ns#"
   xmlns:rdf="http://www.w3.org/1999/02/22-rdf-syntax-ns#"
   xmlns:svg="http://www.w3.org/2000/svg"
   xmlns="http://www.w3.org/2000/svg"
   xmlns:sodipodi="http://sodipodi.sourceforge.net/DTD/sodipodi-0.dtd"
   xmlns:inkscape="http://www.inkscape.org/namespaces/inkscape"
   version="1.0"
   width="580"
   height="580"
   id="svg2"
   sodipodi:version="0.32"
   inkscape:version="0.91 r"
   sodipodi:docname="variety_store.svg"
   inkscape:output_extension="org.inkscape.output.svg.inkscape">
  <metadata
     id="metadata2975">
    <rdf:RDF>
      <cc:Work
         rdf:about="">
        <dc:format>image/svg+xml</dc:format>
        <dc:type
           rdf:resource="http://purl.org/dc/dcmitype/StillImage" />
        <cc:license
           rdf:resource="http://web.resource.org/cc/PublicDomain" />
        <dc:language>en</dc:language>
      </cc:Work>
    </rdf:RDF>
  </metadata>
  <sodipodi:namedview
     inkscape:window-height="1004"
     inkscape:window-width="1920"
     inkscape:pageshadow="2"
     inkscape:pageopacity="0.0"
     guidetolerance="10.0"
     gridtolerance="10.0"
     objecttolerance="10.0"
     borderopacity="1.0"
     bordercolor="#666666"
     pagecolor="#ffffff"
     id="base"
     inkscape:zoom="0.1767767"
     inkscape:cx="938.27834"
     inkscape:cy="243.05357"
     inkscape:window-x="1680"
     inkscape:window-y="0"
     inkscape:current-layer="svg2"
     showgrid="false"
     inkscape:window-maximized="1" />
  <defs
     id="defs4">
    <inkscape:perspective
       sodipodi:type="inkscape:persp3d"
       inkscape:vp_x="0 : 290 : 1"
       inkscape:vp_y="0 : 1000 : 0"
       inkscape:vp_z="580 : 290 : 1"
       inkscape:persp3d-origin="290 : 193.33333 : 1"
       id="perspective2441" />
    <inkscape:perspective
       id="perspective3452"
       inkscape:persp3d-origin="30 : 20 : 1"
       inkscape:vp_z="60 : 30 : 1"
       inkscape:vp_y="0 : 1000 : 0"
       inkscape:vp_x="0 : 30 : 1"
       sodipodi:type="inkscape:persp3d" />
    <symbol
       viewBox="244.5 110 489 219.9"
       id="symbol-university">
      <path
         id="path4460"
         d="M79,43l57,119c0,0,21-96,104-96s124,106,124,106l43-133l82-17L0,17L79,43z" />
      <path
         id="path4462"
         d="M94,176l-21,39"
         stroke-width="20"
         stroke="#000000"
         fill="none" />
      <path
         id="path4464"
         d="M300,19c0,10.5-22.6,19-50.5,19S199,29.5,199,19s22.6-19,50.5-19S300,8.5,300,19z" />
      <path
         id="path4466"
         d="M112,216l-16-38L64,88c0,0-9-8-4-35s16-24,16-24"
         stroke-width="20"
         stroke="#000000"
         ill="none" />
    </symbol>
    <inkscape:perspective
       id="perspective4471"
       inkscape:persp3d-origin="372.04724 : 350.78739 : 1"
       inkscape:vp_z="744.09448 : 526.18109 : 1"
       inkscape:vp_y="0 : 1000 : 0"
       inkscape:vp_x="0 : 526.18109 : 1"
       sodipodi:type="inkscape:persp3d" />
    <inkscape:perspective
       id="perspective4668"
       inkscape:persp3d-origin="6 : 4 : 1"
       inkscape:vp_z="12 : 6 : 1"
       inkscape:vp_y="0 : 1000 : 0"
       inkscape:vp_x="0 : 6 : 1"
       sodipodi:type="inkscape:persp3d" />
    <inkscape:perspective
       id="perspective4904"
       inkscape:persp3d-origin="16 : 10.666667 : 1"
       inkscape:vp_z="32 : 16 : 1"
       inkscape:vp_y="0 : 1000 : 0"
       inkscape:vp_x="0 : 16 : 1"
       sodipodi:type="inkscape:persp3d" />
    <marker
       style="overflow:visible;"
       id="Arrow2Lend"
       refX="0.0"
       refY="0.0"
       orient="auto"
       inkscape:stockid="Arrow2Lend">
      <path
         transform="scale(1.1) rotate(180) translate(1,0)"
         d="M 8.7185878,4.0337352 L -2.2072895,0.016013256 L 8.7185884,-4.0017078 C 6.9730900,-1.6296469 6.9831476,1.6157441 8.7185878,4.0337352 z "
         style="font-size:12.0;fill-rule:evenodd;stroke-width:0.62500000;stroke-linejoin:round;"
         id="path4137" />
    </marker>
    <marker
       style="overflow:visible;"
       id="Arrow1Mend"
       refX="0.0"
       refY="0.0"
       orient="auto"
       inkscape:stockid="Arrow1Mend">
      <path
         transform="scale(0.4) rotate(180) translate(10,0)"
         style="fill-rule:evenodd;stroke:#000000;stroke-width:1.0pt;marker-start:none;"
         d="M 0.0,0.0 L 5.0,-5.0 L -12.5,0.0 L 5.0,5.0 L 0.0,0.0 z "
         id="path4125" />
    </marker>
    <marker
       style="overflow:visible"
       id="TriangleOutL"
       refX="0.0"
       refY="0.0"
       orient="auto"
       inkscape:stockid="TriangleOutL">
      <path
         transform="scale(0.8)"
         style="fill-rule:evenodd;stroke:#000000;stroke-width:1.0pt;marker-start:none"
         d="M 5.77,0.0 L -2.88,5.0 L -2.88,-5.0 L 5.77,0.0 z "
         id="path4214" />
    </marker>
    <marker
       style="overflow:visible;"
       id="Arrow1Lend"
       refX="0.0"
       refY="0.0"
       orient="auto"
       inkscape:stockid="Arrow1Lend">
      <path
         transform="scale(0.8) rotate(180) translate(12.5,0)"
         style="fill-rule:evenodd;stroke:#000000;stroke-width:1.0pt;marker-start:none;"
         d="M 0.0,0.0 L 5.0,-5.0 L -12.5,0.0 L 5.0,5.0 L 0.0,0.0 z "
         id="path4119" />
    </marker>
    <marker
       style="overflow:visible"
       id="Tail"
       refX="0.0"
       refY="0.0"
       orient="auto"
       inkscape:stockid="Tail">
      <g
         transform="scale(-1.2)"
         id="g4152">
        <path
           style="fill:none;fill-rule:evenodd;stroke:#000000;stroke-width:0.8;marker-start:none;marker-end:none;stroke-linecap:round"
           d="M -3.8048674,-3.9585227 L 0.54352094,0"
           id="path4154" />
        <path
           style="fill:none;fill-rule:evenodd;stroke:#000000;stroke-width:0.8;marker-start:none;marker-end:none;stroke-linecap:round"
           d="M -1.2866832,-3.9585227 L 3.0617053,0"
           id="path4156" />
        <path
           style="fill:none;fill-rule:evenodd;stroke:#000000;stroke-width:0.8;marker-start:none;marker-end:none;stroke-linecap:round"
           d="M 1.3053582,-3.9585227 L 5.6537466,0"
           id="path4158" />
        <path
           style="fill:none;fill-rule:evenodd;stroke:#000000;stroke-width:0.8;marker-start:none;marker-end:none;stroke-linecap:round"
           d="M -3.8048674,4.1775838 L 0.54352094,0.21974226"
           id="path4160" />
        <path
           style="fill:none;fill-rule:evenodd;stroke:#000000;stroke-width:0.8;marker-start:none;marker-end:none;stroke-linecap:round"
           d="M -1.2866832,4.1775838 L 3.0617053,0.21974226"
           id="path4162" />
        <path
           style="fill:none;fill-rule:evenodd;stroke:#000000;stroke-width:0.8;marker-start:none;marker-end:none;stroke-linecap:round"
           d="M 1.3053582,4.1775838 L 5.6537466,0.21974226"
           id="path4164" />
      </g>
    </marker>
    <marker
       style="overflow:visible"
       id="Arrow1Sstart"
       refX="0.0"
       refY="0.0"
       orient="auto"
       inkscape:stockid="Arrow1Sstart">
      <path
         transform="scale(0.2) translate(6,0)"
         style="fill-rule:evenodd;stroke:#000000;stroke-width:1.0pt;marker-start:none"
         d="M 0.0,0.0 L 5.0,-5.0 L -12.5,0.0 L 5.0,5.0 L 0.0,0.0 z "
         id="path4128" />
    </marker>
    <marker
       style="overflow:visible;"
       id="Arrow1Send"
       refX="0.0"
       refY="0.0"
       orient="auto"
       inkscape:stockid="Arrow1Send">
      <path
         transform="scale(0.2) rotate(180) translate(6,0)"
         style="fill-rule:evenodd;stroke:#000000;stroke-width:1.0pt;marker-start:none;"
         d="M 0.0,0.0 L 5.0,-5.0 L -12.5,0.0 L 5.0,5.0 L 0.0,0.0 z "
         id="path4131" />
    </marker>
    <marker
       style="overflow:visible"
       id="SemiCircleOut"
       refX="0.0"
       refY="0.0"
       orient="auto"
       inkscape:stockid="SemiCircleOut">
      <path
         transform="scale(0.6) translate(7.125493,0.763446)"
         style="fill-rule:evenodd;stroke:#000000;stroke-width:1.0pt;marker-start:none;marker-end:none"
         d="M -2.5,-0.80913858 C -2.5,1.9508614 -4.7400000,4.1908614 -7.5,4.1908614 L -7.5,-5.8091386 C -4.7400000,-5.8091386 -2.5,-3.5691386 -2.5,-0.80913858 z "
         id="path4235" />
    </marker>
    <marker
       style="overflow:visible;"
       id="Arrow2Send"
       refX="0.0"
       refY="0.0"
       orient="auto"
       inkscape:stockid="Arrow2Send">
      <path
         transform="scale(0.3) rotate(180) translate(-2.3,0)"
         d="M 8.7185878,4.0337352 L -2.2072895,0.016013256 L 8.7185884,-4.0017078 C 6.9730900,-1.6296469 6.9831476,1.6157441 8.7185878,4.0337352 z "
         style="font-size:12.0;fill-rule:evenodd;stroke-width:0.62500000;stroke-linejoin:round;"
         id="path4149" />
    </marker>
    <marker
       style="overflow:visible"
       id="TriangleOutS"
       refX="0.0"
       refY="0.0"
       orient="auto"
       inkscape:stockid="TriangleOutS">
      <path
         transform="scale(0.2)"
         style="fill-rule:evenodd;stroke:#000000;stroke-width:1.0pt;marker-start:none"
         d="M 5.77,0.0 L -2.88,5.0 L -2.88,-5.0 L 5.77,0.0 z "
         id="path4220" />
    </marker>
    <marker
       style="overflow:visible"
       id="CurveIn"
       refX="0.0"
       refY="0.0"
       orient="auto"
       inkscape:stockid="CurveIn">
      <path
         transform="scale(0.6)"
         style="fill-rule:evenodd;stroke:#000000;stroke-width:1.0pt;marker-start:none;marker-end:none;fill:none"
         d="M 4.6254930,-5.0456926 C 1.8654930,-5.0456926 -0.37450702,-2.8056926 -0.37450702,-0.045692580 C -0.37450702,2.7143074 1.8654930,4.9543074 4.6254930,4.9543074"
         id="path4238" />
    </marker>
    <marker
       orient="auto"
       refY="0"
       refX="0"
       id="InfiniteLineStart"
       inkscape:stockid="InfiniteLineStart"
       style="overflow:visible">
      <g
         transform="translate(-13,0)"
         id="g4298">
        <circle
           cx="3"
           cy="0"
           r="0.8"
           id="circle4300" />
        <circle
           cx="6.5"
           cy="0"
           r="0.8"
           id="circle4302" />
        <circle
           cx="10"
           cy="0"
           r="0.8"
           id="circle4304" />
      </g>
    </marker>
    <marker
       style="overflow:visible"
       id="StopS"
       refX="0.0"
       refY="0.0"
       orient="auto"
       inkscape:stockid="StopS">
      <path
         transform="scale(0.2)"
         style="fill:none;fill-opacity:0.75000000;fill-rule:evenodd;stroke:#000000;stroke-width:1.0pt"
         d="M 0.0,5.65 L 0.0,-5.65"
         id="path4229" />
    </marker>
    <marker
       style="overflow:visible"
       id="Arrow2Sstart"
       refX="0.0"
       refY="0.0"
       orient="auto"
       inkscape:stockid="Arrow2Sstart">
      <path
         transform="scale(0.3) translate(-2.3,0)"
         d="M 8.7185878,4.0337352 L -2.2072895,0.016013256 L 8.7185884,-4.0017078 C 6.9730900,-1.6296469 6.9831476,1.6157441 8.7185878,4.0337352 z "
         style="font-size:12.0;fill-rule:evenodd;stroke-width:0.62500000;stroke-linejoin:round"
         id="path4146" />
    </marker>
    <marker
       style="overflow:visible"
       id="DiamondS"
       refX="0.0"
       refY="0.0"
       orient="auto"
       inkscape:stockid="DiamondS">
      <path
         transform="scale(0.2)"
         style="fill-rule:evenodd;stroke:#000000;stroke-width:1.0pt;marker-start:none"
         d="M 0,-7.0710768 L -7.0710894,0 L 0,7.0710589 L 7.0710462,0 L 0,-7.0710768 z "
         id="path4202" />
    </marker>
    <marker
       orient="auto"
       refY="0"
       refX="0"
       id="RazorWire"
       inkscape:stockid="RazorWire">
       style=&quot;overflow:visible&quot;&gt;
      <path
   d="M 0.022727273,-0.74009011 L 0.022727273,0.69740989 L -7.7585227,3.0099099 L 10.678977,3.0099099 L 3.4914773,0.69740989 L 3.4914773,-0.74009011 L 10.741477,-2.8963401 L -7.7272727,-2.8963401 L 0.022727273,-0.74009011 z "
   style="fill:#808080;fill-opacity:1;fill-rule:evenodd;stroke:#000000;stroke-width:0.1pt"
   transform="scale(0.8,0.8)"
   id="path4286" />
</marker>
    <inkscape:perspective
       id="perspective5233"
       inkscape:persp3d-origin="16 : 10.666667 : 1"
       inkscape:vp_z="32 : 16 : 1"
       inkscape:vp_y="0 : 1000 : 0"
       inkscape:vp_x="0 : 16 : 1"
       sodipodi:type="inkscape:persp3d" />
    <inkscape:perspective
       id="perspective5412"
       inkscape:persp3d-origin="250 : 166.66667 : 1"
       inkscape:vp_z="500 : 250 : 1"
       inkscape:vp_y="0 : 1000 : 0"
       inkscape:vp_x="0 : 250 : 1"
       sodipodi:type="inkscape:persp3d" />
    <inkscape:perspective
       id="perspective5571"
       inkscape:persp3d-origin="202.85715 : 136.19048 : 1"
       inkscape:vp_z="405.71429 : 204.28572 : 1"
       inkscape:vp_y="0 : 1000 : 0"
       inkscape:vp_x="0 : 204.28572 : 1"
       sodipodi:type="inkscape:persp3d" />
  </defs>
  <g
     id="g1327">
    <path
       d="M 66.275,1.768 C 24.94,1.768 1.704,23.139 1.704,66.804 L 1.704,516.927 C 1.704,557.771 22.599,579.156 63.896,579.156 L 515.92,579.156 C 557.227,579.156 578.149,558.841 578.149,516.927 L 578.149,66.804 C 578.149,24.203 557.227,1.768 514.628,1.768 C 514.624,1.768 66.133,1.625 66.275,1.768 z "
       style="fill:#111;stroke:#eee;stroke-width:3.40799999"
       id="path1329" />
  </g>
  <path
     style="fill:#ffffff"
     d="M 290,33.601562 C 148.39495,33.601326 33.601326,148.39495 33.601562,290 33.601326,431.60505 148.39495,546.39868 290,546.39844 431.60505,546.39868 546.39868,431.60505 546.39844,290 546.39868,148.39495 431.60505,33.601325 290,33.601562 Z m -4.10352,41.951172 36.20899,0 0,415.722656 -54.50391,0 0,-326.33398 -52.41015,23.95898 0,-59.47656 z m 131.16016,155.425786 14.04492,0 0,18.33984 c 7.14494,0.79085 13.85272,2.34404 20.125,4.63476 6.27227,2.3044 11.794,5.48154 16.55274,9.53126 4.75875,4.04969 8.64482,9.0962 11.67187,15.12304 3.01342,6.04047 4.75909,13.1842 5.23633,21.4336 l -33.81445,0 c -0.16363,-6.35409 -2.14108,-11.75213 -5.95899,-16.19727 -3.80428,-4.44512 -8.41285,-6.68164 -13.79883,-6.68164 l 0,42.14648 c 1.90894,0.47724 3.84517,0.95441 5.83594,1.43164 1.99076,0.47723 4.08994,1.03684 6.3125,1.66407 11.7537,3.17704 20.79435,7.11798 27.14844,11.79492 6.34046,4.67693 11.03149,9.57022 14.04492,14.64258 3.01342,5.07236 4.79837,10.1601 5.35742,15.24609 0.55906,5.08601 0.83203,9.59851 0.83203,13.56641 0,3.50429 -0.87184,7.89509 -2.61718,13.21289 -1.74532,5.33144 -4.88128,10.51361 -9.40821,15.59961 -4.52696,5.08599 -10.5946,9.61219 -18.21679,13.58008 -7.62217,3.96789 -17.38539,6.34004 -29.28907,7.14453 l 0,20.23437 -14.04492,0 0,-20.23437 c -17.78055,-1.26809 -31.67519,-6.74857 -41.66992,-16.42969 -10.00838,-9.68112 -15.80305,-23.88999 -17.38477,-42.625 l 33.58399,0 c -0.17727,9.05389 2.20845,16.18593 7.11719,21.43555 4.92237,5.23598 11.03127,8.57606 18.33984,9.99414 l 0,-49.76953 c -0.80449,-0.31361 -1.86884,-0.66712 -3.21875,-1.07618 -1.3499,-0.39543 -2.8226,-0.75083 -4.4043,-1.06445 -5.87685,-1.5817 -11.67153,-3.46276 -17.38476,-5.60352 -5.71323,-2.14075 -10.84024,-5.0037 -15.36719,-8.57617 -4.52694,-3.57247 -8.14,-8.01814 -10.82617,-13.33594 -2.69981,-5.31779 -4.04883,-11.9451 -4.04883,-19.89453 0,-8.09942 1.55321,-15.24504 4.64844,-21.42187 3.09523,-6.19046 7.17181,-11.39796 12.25781,-15.59766 5.07236,-4.21333 10.94949,-7.47293 17.61719,-9.76367 6.6677,-2.30438 13.58162,-3.68099 20.72656,-4.17187 z m -231.3125,12.4375 c 14.12098,0 28.24232,4.23639 45.1875,12.70898 l -15.5332,31.06641 c -12.70888,-8.47258 -22.59383,-11.29688 -32.47852,-11.29688 -16.94516,0 -28.24223,11.29707 -33.89062,33.89063 l 60.7207,0 -7.06055,18.35742 -55.07226,0 0,9.88476 49.42383,0 -7.06055,18.35743 -42.36328,0 c 5.64839,25.41775 16.94548,39.53709 36.71484,39.53711 12.70888,0 25.41807,-5.64853 38.12695,-15.53321 l 0,36.71485 c -11.29678,7.06049 -24.00597,9.88476 -38.12695,9.88476 -21.18146,0 -36.71496,-7.06066 -49.42383,-19.76953 -11.29679,-12.70888 -18.35746,-28.24042 -22.59375,-50.83398 l -21.181638,0 7.060548,-18.35743 9.88477,0 0,-7.06054 0,-4.23633 -16.945318,0 7.060548,-18.35742 14.12109,0 c 4.23629,-19.76937 12.70907,-35.30284 24.00586,-46.59961 12.70887,-12.70888 29.65447,-18.35742 49.42383,-18.35742 z m 231.32617,33.74609 c -2.71344,0 -5.331,0.39474 -7.86719,1.19922 -2.53617,0.79085 -4.84144,2.03175 -6.90039,3.68164 -2.05894,1.67715 -3.68094,3.73702 -4.88085,6.19141 -1.18627,2.468 -1.78711,5.35851 -1.78711,8.68554 0,5.24963 1.66322,9.28502 5.0039,12.14844 3.32702,2.8498 8.80946,5.15506 16.43164,6.90039 z m 14.04492,76.68555 0,45.71875 c 2.84979,-0.31361 5.83446,-0.98129 8.92969,-2.01758 3.09523,-1.03629 5.87766,-2.50898 8.33203,-4.4043 2.45437,-1.89532 4.48665,-4.25549 6.06836,-7.03711 1.5817,-2.76798 2.38477,-6.06686 2.38477,-9.88476 0,-6.19047 -1.94985,-10.82666 -5.83594,-13.92188 -3.88608,-3.09524 -10.51141,-5.91694 -19.87891,-8.45312 z"
     id="circle24"
     inkscape:connector-curvature="0"
     sodipodi:nodetypes="sssssccccccccccccsccccccsccssscssccccccccccccsscscccccsccsccccccccsccsccccccccccssccccscccccsscssc" />
</svg>

<svg width="580" height="580" viewBox="0 0 580 580" fill="none" xmlns="http://www.w3.org/2000/svg">
<g clip-path="url(#clip0)">
<path d="M66.2751 1.76863C24.9401 1.76863 1.7041 23.1396 1.7041 66.8046V516.928C1.7041 557.772 22.5991 579.157 63.8961 579.157H515.92C557.227 579.157 578.149 558.842 578.149 516.928V66.8046C578.149 24.2036 557.227 1.76863 514.628 1.76863C514.624 1.76863 66.1331 1.62563 66.2751 1.76863Z" fill="#111111" stroke="#EEEEEE" stroke-width="3.408"/>
<path d="M290 33.6016C148.395 33.6013 33.6013 148.395 33.6016 290C33.6013 431.605 148.395 546.399 290 546.398C431.605 546.399 546.399 431.605 546.398 290C546.399 148.395 431.605 33.6013 290 33.6016ZM285.896 75.5527H322.105V491.275H267.602V164.941L215.191 188.9V129.424L285.896 75.5527ZM417.057 230.979H431.102V249.318C438.247 250.109 444.954 251.662 451.227 253.953C457.499 256.258 463.021 259.435 467.779 263.484C472.538 267.534 476.424 272.581 479.451 278.607C482.465 284.648 484.21 291.792 484.688 300.041H450.873C450.709 293.687 448.732 288.289 444.914 283.844C441.11 279.399 436.501 277.162 431.115 277.162V319.309C433.024 319.786 434.96 320.263 436.951 320.74C438.942 321.217 441.041 321.777 443.264 322.404C455.017 325.581 464.058 329.522 470.412 334.199C476.753 338.876 481.444 343.769 484.457 348.842C487.47 353.914 489.255 359.002 489.814 364.088C490.374 369.174 490.646 373.686 490.646 377.654C490.646 381.159 489.775 385.549 488.029 390.867C486.284 396.199 483.148 401.381 478.621 406.467C474.094 411.553 468.026 416.079 460.404 420.047C452.782 424.015 443.019 426.387 431.115 427.191V447.426H417.07V427.191C399.29 425.923 385.395 420.443 375.4 410.762C365.392 401.081 359.597 386.872 358.016 368.137H391.6C391.422 377.191 393.808 384.323 398.717 389.572C403.639 394.808 409.748 398.148 417.057 399.566V349.797C416.252 349.483 415.188 349.13 413.838 348.721C412.488 348.325 411.015 347.97 409.434 347.656C403.557 346.075 397.762 344.193 392.049 342.053C386.336 339.912 381.209 337.049 376.682 333.477C372.155 329.904 368.542 325.458 365.855 320.141C363.156 314.823 361.807 308.196 361.807 300.246C361.807 292.147 363.36 285.001 366.455 278.824C369.55 272.634 373.627 267.426 378.713 263.227C383.785 259.013 389.662 255.754 396.33 253.463C402.998 251.159 409.912 249.782 417.057 249.291V230.979ZM185.744 243.416C199.865 243.416 213.986 247.652 230.932 256.125L215.398 287.191C202.69 278.719 192.805 275.895 182.92 275.895C165.975 275.895 154.678 287.192 149.029 309.785H209.75L202.689 328.143H147.617V338.027H197.041L189.98 356.385H147.617C153.266 381.803 164.563 395.922 184.332 395.922C197.041 395.922 209.75 390.273 222.459 380.389V417.104C211.162 424.164 198.453 426.988 184.332 426.988C163.151 426.988 147.617 419.928 134.908 407.219C123.611 394.51 116.551 378.978 112.314 356.385H91.1328L98.1934 338.027H108.078V330.967V326.73H91.1328L98.1934 308.373H112.314C116.551 288.604 125.024 273.07 136.32 261.773C149.029 249.065 165.975 243.416 185.744 243.416V243.416ZM417.07 277.162C414.357 277.162 411.739 277.557 409.203 278.361C406.667 279.152 404.362 280.393 402.303 282.043C400.244 283.72 398.622 285.78 397.422 288.234C396.236 290.702 395.635 293.593 395.635 296.92C395.635 302.17 397.298 306.205 400.639 309.068C403.966 311.918 409.448 314.223 417.07 315.969V277.162ZM431.115 353.848V399.566C433.965 399.253 436.95 398.585 440.045 397.549C443.14 396.513 445.923 395.04 448.377 393.145C450.831 391.249 452.864 388.889 454.445 386.107C456.027 383.339 456.83 380.041 456.83 376.223C456.83 370.032 454.88 365.396 450.994 362.301C447.108 359.206 440.483 356.384 431.115 353.848V353.848Z" fill="white"/>
</g>
<defs>
<clipPath id="clip0">
<path d="M0 0H580V580H0V0Z" fill="white"/>
</clipPath>
</defs>
</svg>
